X:4
T:Martin Rocheford's
M:4/4
L:1/8
Z: Greg Taylor
K:D
d2fd BAFE|DB,B,2 A,B,DE|FAde f2ed|Beed egfe|
d2fd BAFE|DB,B,2 A,B,DE|FAdf ecdB|AFEA FDD2:|
|:d2ad bdad|gdfd edBd|Add2 Adfb|afdf e2fg|
aff2 afef|defd efdA|FAdf ecdB|AFEA FDD2:|
